!!!OTL: Broken Ring
!!!ONM: 28.
**kern
*clefG2
*k[b-]
*F:
*M3/4
*MM92
{8c
8f
8a
=1
4.cc
8a
8b-
8a
=2
8g
4dd}
{8ff
8ee
8dd
=3
4.cc
8cc
8dd
8cc
=4
4.a}
{8cc
8a
8cc
=5
4.ff
8a
8b-
8a
=6
8g
4dd}
{16ff
16ff
8ee
8dd
=7
4.cc
16g
16a
8b-
8a
=8
2.f}
==
*-
!!!CNT: Folksongs of Maritime Canada
!!!MRD: 1928///-1932///
!!!OCL: Helen Creighton
!!!YOR: Songs and Ballads from Nova Scotia
!!!PPR: J.M. Dent & Sons, Limited
!!!PPP: Toronto, Canada
!!!PDT: 1932///
!!!reprint: Dover Publications, 1992: ISBN 0-486-21703-5
!!!ENC1: Craig Stuart Sapp (music and bibliographic data)                       
!!!ENC2: Marcus Pearce (phrase markings and key designations)                   
!!!ENC3: Darrell Conklin (phrase markings and key designations)   
!!!END: 2002/04/10/
!!!EEV: 2004/06/05
!!!MPN: Mrs. Agnes Gorham
!!!PPG: 56
!!!EFL: 28/152
!!!ARE: Canada; Nova Scotia
!!!verses: 7
!!!VTS: 2211083579
